X: 1072
T: Amazing Adventures Of Dr Moriarty, The
R: reel
M: 4/4
K: Dmajor
FABF A2FA|dBAF EDB,D|FABF A2FA|ABde fafd|
FABF A2FA|dBAF EDB,D|FABF A2FA|ABde fafe|dBAF dzfa||
|:b2ba bafd|ABBA BdBA|EFAB FAEA|dBAF defa|
b2ba bafd|ABBA B2de|faef d2AB|1 dBAF defa:|2 dBAF D3E||

